optimized/24/outline/url.svg

<svg viewBox="0 0 24 24" xmlns="http://www.w3.org/2000/svg" fill="currentColor" data-slot="icon">
  <g clip-path="url(#clip0_2117_12164)">
    <path d="M18.5461 5.45391C17.2758 4.18367 15.2164 4.18367 13.9461 5.45391L11.1154 8.28465C10.8223 8.57778 10.347 8.57778 10.0539 8.28465C9.76073 7.99151 9.76073 7.51625 10.0539 7.22312L12.8846 4.39238C14.7411 2.53587 17.7511 2.53587 19.6076 4.39238C21.4641 6.24889 21.4641 9.25888 19.6076 11.1154L16.7769 13.9461C16.4837 14.2393 16.0085 14.2393 15.7153 13.9461C15.4222 13.653 15.4222 13.1777 15.7153 12.8846L18.5461 10.0539C19.8163 8.78362 19.8163 6.72415 18.5461 5.45391Z"/>
    <path d="M5.45391 18.5461C6.72415 19.8163 8.78362 19.8163 10.0539 18.5461L12.8846 15.7154C13.1777 15.4222 13.653 15.4222 13.9461 15.7154C14.2393 16.0085 14.2393 16.4838 13.9461 16.7769L11.1154 19.6076C9.25888 21.4641 6.24889 21.4641 4.39238 19.6076C2.53587 17.7511 2.53587 14.7411 4.39238 12.8846L7.22312 10.0539C7.51626 9.76075 7.99152 9.76075 8.28465 10.0539C8.57778 10.347 8.57778 10.8223 8.28465 11.1154L5.45391 13.9461C4.18367 15.2164 4.18367 17.2759 5.45391 18.5461Z"/>
    <path d="M16.0692 8.99235C16.3623 8.69922 16.3623 8.22396 16.0692 7.93082C15.7761 7.63769 15.3008 7.63769 15.0077 7.93082L7.93081 15.0077C7.63768 15.3008 7.63768 15.7761 7.93081 16.0692C8.22394 16.3623 8.6992 16.3623 8.99234 16.0692L16.0692 8.99235Z"/>
  </g>
  <defs>
    <clipPath id="clip0_2117_12164">
      <rect width="24" height="24"/>
    </clipPath>
  </defs>
</svg>

<svg xmlns="http://www.w3.org/2000/svg" viewBox="0 0 24 24" fill="currentColor" data-slot="icon">
  <g clip-path="url(#a)">
    <path d="M18.546 5.454a3.253 3.253 0 0 0-4.6 0l-2.83 2.83a.75.75 0 1 1-1.062-1.06l2.83-2.832a4.754 4.754 0 1 1 6.724 6.723l-2.831 2.831a.75.75 0 1 1-1.062-1.061l2.831-2.831a3.253 3.253 0 0 0 0-4.6Z"/>
    <path d="M5.454 18.546a3.253 3.253 0 0 0 4.6 0l2.83-2.83a.75.75 0 1 1 1.062 1.06l-2.83 2.832a4.754 4.754 0 0 1-6.724-6.723l2.831-2.831a.75.75 0 1 1 1.062 1.061l-2.831 2.831a3.253 3.253 0 0 0 0 4.6Z"/>
    <path d="M16.07 8.992a.75.75 0 0 0-1.062-1.061L7.93 15.008a.75.75 0 1 0 1.061 1.061l7.077-7.077Z"/>
  </g>
  <defs>
    <clipPath id="a">
      <rect width="24" height="24"/>
    </clipPath>
  </defs>
</svg>
